;FLAVOR:Marlin
;TIME:597
;Filament used: 0.00289655m
;Layer height: 0.353
;MINX:175.205
;MINY:139.859
;MINZ:0.353
;MAXX:224.795
;MAXY:158.337
;MAXZ:2.824
;TARGET_MACHINE.NAME:Unknown
;Generated with Cura_SteamEngine 5.10.0
M104 S200
M105
M109 S200
;start
M82 ;absolute extrusion mode
G92 E0
G92 E0
G1 F900 E-0.5
;LAYER_COUNT:8
;LAYER:0
M107
;MESH:model1_1.stl
G0 X223.648 Y158.222 Z0.353
;TYPE:WALL-OUTER
G1 F900 E0
G1 X224.114 Y157.953 E0.00019
G1 X224.48 Y157.558 E0.00039
G1 X224.713 Y157.078 E0.00058
G1 X224.795 Y156.54 E0.00078
G1 X224.795 Y141.656 E0.00615
G1 X224.713 Y141.118 E0.00634
G1 X224.481 Y140.638 E0.00654
G1 X224.115 Y140.247 E0.00673
G1 X223.648 Y139.978 E0.00692
G1 X223.129 Y139.859 E0.00712
G1 X222.572 Y139.904 E0.00732
G1 X215.136 Y141.331 E0.01005
G1 X207.584 Y142.193 E0.01279
G1 X199.99 Y142.477 E0.01553
G1 X192.396 Y142.192 E0.01827
G1 X184.853 Y141.33 E0.02101
G1 X177.424 Y139.904 E0.02374
G1 X176.867 Y139.859 E0.02394
G1 X176.348 Y139.978 E0.02414
G1 X175.881 Y140.247 E0.02433
G1 X175.516 Y140.637 E0.02452
G1 X175.287 Y141.117 E0.02472
G1 X175.205 Y141.656 E0.02491
G1 X175.205 Y156.54 E0.03028
G1 X175.287 Y157.079 E0.03048
G1 X175.516 Y157.559 E0.03067
G1 X175.882 Y157.953 E0.03087
G1 X176.348 Y158.222 E0.03106
G1 X176.867 Y158.337 E0.03125
G1 X177.424 Y158.292 E0.03145
G1 X184.868 Y156.864 E0.03419
G1 X192.404 Y156.007 E0.03692
G1 X200.008 Y155.719 E0.03967
G1 X207.602 Y156.008 E0.04241
G1 X215.143 Y156.866 E0.04515
G1 X222.572 Y158.292 E0.04788
G1 X223.129 Y158.337 E0.04808
G1 X223.648 Y158.222 E0.04827
G0 X223.825 Y158.12
G0 X223.345 Y157.45
;TYPE:FILL
G1 X223.593 Y157.302 E0.04838
G1 X223.797 Y157.082 E0.04848
G1 X223.921 Y156.829 E0.04859
G1 X223.975 Y156.484 E0.04871
G1 X223.975 Y141.708 E0.05404
G1 X223.922 Y141.362 E0.05417
G1 X223.797 Y141.106 E0.05427
G1 X223.599 Y140.895 E0.05438
G1 X223.348 Y140.75 E0.05448
G1 X223.068 Y140.687 E0.05458
G1 X222.675 Y140.716 E0.05473
G1 X215.252 Y142.144 E0.05745
G1 X207.632 Y143.009 E0.06022
G1 X199.972 Y143.297 E0.06299
G1 X192.312 Y143.008 E0.06575
G1 X184.725 Y142.142 E0.06851
G1 X177.316 Y140.716 E0.07123
G1 X176.928 Y140.687 E0.07137
G1 X176.648 Y140.75 E0.07147
G1 X176.398 Y140.895 E0.07158
G1 X176.203 Y141.102 E0.07168
G1 X176.075 Y141.366 E0.07179
G1 X176.025 Y141.707 E0.07191
G1 X176.025 Y156.485 E0.07724
G1 X176.075 Y156.827 E0.07737
G1 X176.203 Y157.091 E0.07747
G1 X176.399 Y157.303 E0.07758
G1 X176.647 Y157.45 E0.07768
G1 X176.918 Y157.505 E0.07778
G1 X177.317 Y157.476 E0.07792
G1 X184.74 Y156.048 E0.08065
G1 X192.344 Y155.187 E0.08341
G1 X200.02 Y154.899 E0.08618
G1 X207.68 Y155.188 E0.08895
G1 X215.267 Y156.05 E0.0917
G1 X222.675 Y157.476 E0.09443
G1 X223.074 Y157.505 E0.09457
G1 X223.345 Y157.45 E0.09467
G0 X223.123 Y156.595
G1 X223.155 Y156.421 E0.09473
G1 X223.155 Y141.761 E0.10002
G1 X223.127 Y141.593 E0.10009
G1 X223.006 Y141.511 E0.10014
G1 X222.78 Y141.528 E0.10022
G1 X215.376 Y142.956 E0.10294
G1 X207.68 Y143.825 E0.10573
G1 X199.956 Y144.117 E0.10852
G1 X192.228 Y143.824 E0.11131
G1 X184.595 Y142.954 E0.11409
G1 X177.208 Y141.532 E0.1168
G1 X176.943 Y141.512 E0.1169
G1 X176.871 Y141.587 E0.11693
G1 X176.846 Y141.774 E0.117
G1 X176.845 Y156.418 E0.12228
G1 X176.867 Y156.585 E0.12234
G1 X176.939 Y156.68 E0.12239
G1 X177.209 Y156.66 E0.12249
G1 X184.613 Y155.232 E0.12521
G1 X192.281 Y154.367 E0.12799
G1 X200.036 Y154.079 E0.13079
G1 X207.76 Y154.368 E0.13358
G1 X215.391 Y155.234 E0.13635
G1 X222.779 Y156.66 E0.13906
G1 X223.001 Y156.676 E0.13914
G1 X223.123 Y156.595 E0.1392
G0 X222.335 Y155.735
G1 X222.335 Y142.449 E0.14399
G1 X215.5 Y143.768 E0.1465
G1 X207.728 Y144.641 E0.14932
G1 X199.94 Y144.937 E0.15214
G1 X192.144 Y144.64 E0.15495
G1 X184.464 Y143.765 E0.15774
G1 X177.665 Y142.457 E0.16024
G1 X177.665 Y155.735 E0.16503
G1 X184.485 Y154.416 E0.16753
G1 X192.208 Y153.547 E0.17034
G1 X200.052 Y153.259 E0.17317
G1 X207.84 Y153.548 E0.17598
G1 X215.515 Y154.418 E0.17877
G1 X222.335 Y155.735 E0.18127
G0 X221.515 Y154.739
G1 X221.515 Y143.441 E0.18535
G1 X215.623 Y144.58 E0.18752
G1 X207.776 Y145.457 E0.19036
G1 X199.924 Y145.757 E0.1932
G1 X192.064 Y145.456 E0.19604
G1 X184.336 Y144.577 E0.19884
G1 X178.485 Y143.449 E0.20099
G1 X178.485 Y154.739 E0.20507
G1 X184.357 Y153.6 E0.20722
G1 X192.148 Y152.727 E0.21005
G1 X200.068 Y152.439 E0.21291
G1 X207.92 Y152.728 E0.21575
G1 X215.639 Y153.602 E0.21855
G1 X221.515 Y154.739 E0.22071
G0 X220.695 Y153.743
G1 X220.695 Y144.433 E0.22407
G1 X215.731 Y145.392 E0.22589
G1 X207.846 Y146.273 E0.22875
G1 X199.908 Y146.577 E0.23162
G1 X191.984 Y146.272 E0.23448
G1 X184.229 Y145.394 E0.2373
G1 X179.305 Y144.441 E0.23911
G1 X179.305 Y153.743 E0.24246
G1 X184.232 Y152.786 E0.24427
G1 X192.1 Y151.907 E0.24713
G1 X200.084 Y151.619 E0.25001
G1 X208 Y151.908 E0.25287
G1 X215.747 Y152.786 E0.25568
G1 X220.695 Y153.743 E0.2575
G0 X219.875 Y152.747
G1 X219.875 Y145.425 E0.26014
G1 X215.84 Y146.204 E0.26163
G1 X207.904 Y147.089 E0.26451
G1 X199.892 Y147.397 E0.2674
G1 X191.904 Y147.088 E0.27028
G1 X184.117 Y146.206 E0.27311
G1 X180.125 Y145.433 E0.27458
G1 X180.125 Y152.747 E0.27722
G1 X184.124 Y151.97 E0.27869
G1 X192.052 Y151.087 E0.28156
G1 X200.096 Y150.799 E0.28447
G1 X208.06 Y151.088 E0.28734
G1 X215.855 Y151.97 E0.29017
G1 X219.875 Y152.747 E0.29165
G0 X219.055 Y151.751
G1 X219.055 Y146.417 E0.29358
G1 X215.948 Y147.016 E0.29472
G1 X207.952 Y147.905 E0.29762
G1 X199.876 Y148.217 E0.30054
G1 X191.825 Y147.904 E0.30344
G1 X184.004 Y147.022 E0.30628
G1 X180.945 Y146.425 E0.30741
G1 X180.945 Y151.751 E0.30933
G1 X184.033 Y151.152 E0.31046
G1 X192.004 Y150.267 E0.31336
G1 X200.108 Y149.979 E0.31628
G1 X208.14 Y150.268 E0.31918
G1 X215.963 Y151.154 E0.32202
G1 X219.055 Y151.751 E0.32316
G0 X218.235 Y150.755
G1 X218.235 Y147.409 E0.32437
G1 X216.056 Y147.828 E0.32517
G1 F874.4 X214.752 Y147.986 E0.32565
G1 F825.5 X213.447 Y148.143 E0.32617
G1 F781.8 X212.142 Y148.301 E0.32672
G1 F742.5 X210.838 Y148.459 E0.32729
G1 F706.9 X209.534 Y148.616 E0.3279
G1 F674.6 X208.229 Y148.774 E0.32853
G1 F649.6 X208.186 Y148.788 E0.32855
G1 F645.1 X208.052 Y148.798 E0.32862
G1 F663.7 X207.389 Y148.811 E0.32894
G1 F694.9 X206.726 Y148.825 E0.32925
G1 F729.2 X206.063 Y148.838 E0.32955
G1 F767.2 X205.401 Y148.852 E0.32983
G1 F809.2 X204.738 Y148.865 E0.33009
G1 F856.1 X204.075 Y148.878 E0.33035
G1 F906.6 X203.412 Y148.892 E0.33058
G1 F966 X202.749 Y148.905 E0.33081
G1 F1033.6 X202.086 Y148.919 E0.33101
G1 F1111.4 X201.424 Y148.932 E0.33121
G1 F1202 X200.761 Y148.946 E0.33139
G1 F1308.5 X200.098 Y148.959 E0.33155
G1 F1366.7 X199.862 Y148.967 E0.33161
G1 F1308.5 X199.238 Y148.954 E0.33176
G1 F1209.8 X198.614 Y148.942 E0.33193
G1 F1121.6 X197.99 Y148.929 E0.33211
G1 F1048.3 X197.367 Y148.917 E0.3323
G1 F981.4 X196.743 Y148.904 E0.33251
G1 F924.8 X196.119 Y148.892 E0.33273
G1 F874.4 X195.495 Y148.879 E0.33296
G1 F827.4 X194.871 Y148.867 E0.33321
G1 F786.8 X194.247 Y148.854 E0.33346
G1 F748.5 X193.624 Y148.842 E0.33373
G1 F715.1 X193 Y148.829 E0.33402
G1 F683.3 X192.376 Y148.816 E0.33431
G1 F655.4 X191.752 Y148.804 E0.33462
G1 F651.9 X191.736 Y148.793 E0.33463
G1 F677.1 X190.424 Y148.632 E0.33527
G1 F709.6 X189.112 Y148.472 E0.33587
G1 F744 X187.8 Y148.311 E0.33645
G1 F783.4 X186.487 Y148.151 E0.337
G1 F825.5 X185.175 Y147.99 E0.33752
G1 F874.4 X183.863 Y147.83 E0.33801
G1 F900 X181.765 Y147.418 E0.33878
G1 X181.765 Y150.755 E0.33998
G1 X183.925 Y150.336 E0.34078
G1 F874.4 X185.227 Y150.179 E0.34126
G1 F825.5 X186.528 Y150.022 E0.34178
G1 F783.4 X187.83 Y149.865 E0.34232
G1 F744 X189.131 Y149.708 E0.34289
G1 F709.6 X190.433 Y149.551 E0.34349
G1 F677.1 X191.734 Y149.394 E0.34412
G1 F651.9 X191.777 Y149.379 E0.34415
G1 F645.1 X191.9 Y149.37 E0.34421
G1 F663.7 X192.565 Y149.359 E0.34453
G1 F694.9 X193.23 Y149.348 E0.34484
G1 F729.2 X193.895 Y149.337 E0.34514
G1 F767.2 X194.56 Y149.326 E0.34542
G1 F809.2 X195.225 Y149.315 E0.34569
G1 F856.1 X195.89 Y149.304 E0.34594
G1 F906.6 X196.554 Y149.292 E0.34618
G1 F966 X197.219 Y149.281 E0.3464
G1 F1033.6 X197.884 Y149.27 E0.34661
G1 F1111.4 X198.549 Y149.259 E0.34681
G1 F1202 X199.214 Y149.248 E0.34699
G1 F1308.5 X199.879 Y149.237 E0.34715
G1 F1366.7 X200.117 Y149.229 E0.34721
G1 F1303.9 X200.739 Y149.239 E0.34736
G1 F1205.9 X201.361 Y149.25 E0.34753
G1 F1118.2 X201.983 Y149.26 E0.34771
G1 F1045.3 X202.605 Y149.271 E0.3479
G1 F978.8 X203.227 Y149.281 E0.34811
G1 F922.5 X203.849 Y149.291 E0.34833
G1 F870.3 X204.47 Y149.302 E0.34856
G1 F823.7 X205.092 Y149.312 E0.34881
G1 F783.4 X205.714 Y149.322 E0.34906
G1 F745.5 X206.336 Y149.333 E0.34933
G1 F712.4 X206.958 Y149.343 E0.34962
G1 F680.8 X207.58 Y149.354 E0.34991
G1 F653.1 X208.202 Y149.364 E0.35022
G1 F649.6 X208.228 Y149.374 E0.35024
G1 F674.6 X209.535 Y149.535 E0.35087
G1 F706.9 X210.842 Y149.695 E0.35148
G1 F742.5 X212.15 Y149.856 E0.35205
G1 F781.8 X213.457 Y150.017 E0.3526
G1 F825.5 X214.764 Y150.177 E0.35312
G1 F874.4 X216.071 Y150.338 E0.35361
G1 F900 X218.235 Y150.755 E0.3544
G1 F900 E-0.1456
G0 X212.806 Y149.078
G1 F900 E0.3544
G1 X216.215 Y149.53 E0.35564
G1 X217.415 Y149.76 E0.35608
G1 X217.415 Y148.401 E0.35657
G1 X216.171 Y148.64 E0.35703
G1 X212.806 Y149.078 E0.35826
G1 F900 E-0.14174
G0 X187.149 Y149.087
G1 F900 E0.35826
G1 X183.716 Y148.634 E0.3595
G1 X182.585 Y148.413 E0.35992
G1 X182.585 Y149.759 E0.36041
G1 X183.805 Y149.524 E0.36085
G1 X187.149 Y149.087 E0.36207
G1 F900 E-0.13793
;MESH:NONMESH
G0 X187.149 Y149.087 Z0.706
G0 X223.538 Y157.926
G0 X223.648 Y158.222
;TIME_ELAPSED:92.376686
;LAYER:1
M106 S255
;TYPE:WALL-OUTER
;MESH:model1_1.stl
G1 F900 E0.36207
G1 X224.114 Y157.953 E0.36227
G1 X224.48 Y157.558 E0.36246
G1 X224.713 Y157.078 E0.36265
G1 X224.795 Y156.54 E0.36285
G1 X224.795 Y141.656 E0.36822
G1 X224.713 Y141.118 E0.36841
G1 X224.481 Y140.638 E0.36861
G1 X224.115 Y140.247 E0.3688
G1 X223.648 Y139.978 E0.36899
G1 X223.129 Y139.859 E0.36919
G1 X222.572 Y139.904 E0.36939
G1 X215.136 Y141.331 E0.37212
G1 X207.584 Y142.193 E0.37486
G1 X199.99 Y142.477 E0.3776
G1 X192.396 Y142.192 E0.38035
G1 X184.853 Y141.33 E0.38309
G1 X177.424 Y139.904 E0.38581
G1 X176.867 Y139.859 E0.38602
G1 X176.348 Y139.978 E0.38621
G1 X175.881 Y140.247 E0.3864
G1 X175.516 Y140.637 E0.3866
G1 X175.287 Y141.117 E0.38679
G1 X175.205 Y141.656 E0.38698
G1 X175.205 Y156.54 E0.39235
G1 X175.287 Y157.079 E0.39255
G1 X175.516 Y157.559 E0.39274
G1 X175.882 Y157.953 E0.39294
G1 X176.348 Y158.222 E0.39313
G1 X176.867 Y158.337 E0.39332
G1 X177.424 Y158.292 E0.39352
G1 X184.868 Y156.864 E0.39626
G1 X192.404 Y156.007 E0.39899
G1 X200.008 Y155.719 E0.40174
G1 X207.602 Y156.008 E0.40448
G1 X215.143 Y156.866 E0.40722
G1 X222.572 Y158.292 E0.40995
G1 X223.129 Y158.337 E0.41015
G1 X223.648 Y158.222 E0.41034
G0 X223.825 Y158.12
G0 X223.345 Y157.45
;TYPE:FILL
G1 X223.593 Y157.302 E0.41045
G1 X223.797 Y157.082 E0.41056
G1 X223.921 Y156.829 E0.41066
G1 X223.975 Y156.484 E0.41078
G1 X223.975 Y141.708 E0.41611
G1 X223.922 Y141.362 E0.41624
G1 X223.797 Y141.106 E0.41634
G1 X223.599 Y140.895 E0.41645
G1 X223.348 Y140.75 E0.41655
G1 X223.068 Y140.687 E0.41666
G1 X222.675 Y140.716 E0.4168
G1 X215.252 Y142.144 E0.41953
G1 X207.632 Y143.009 E0.42229
G1 X199.972 Y143.297 E0.42506
G1 X192.312 Y143.008 E0.42782
G1 X184.725 Y142.142 E0.43058
G1 X177.316 Y140.716 E0.4333
G1 X176.928 Y140.687 E0.43344
G1 X176.648 Y140.75 E0.43354
G1 X176.398 Y140.895 E0.43365
G1 X176.203 Y141.102 E0.43375
G1 X176.075 Y141.366 E0.43386
G1 X176.025 Y141.707 E0.43398
G1 X176.025 Y156.485 E0.43931
G1 X176.075 Y156.827 E0.43944
G1 X176.203 Y157.091 E0.43954
G1 X176.399 Y157.303 E0.43965
G1 X176.647 Y157.45 E0.43975
G1 X176.918 Y157.505 E0.43985
G1 X177.317 Y157.476 E0.44
G1 X184.74 Y156.048 E0.44272
G1 X192.344 Y155.187 E0.44548
G1 X200.02 Y154.899 E0.44826
G1 X207.68 Y155.188 E0.45102
G1 X215.267 Y156.05 E0.45378
G1 X222.675 Y157.476 E0.4565
G1 X223.074 Y157.505 E0.45664
G1 X223.345 Y157.45 E0.45674
G0 X223.123 Y156.595
G1 X223.155 Y156.421 E0.45681
G1 X223.155 Y141.761 E0.46209
G1 X223.127 Y141.593 E0.46216
G1 X223.006 Y141.511 E0.46221
G1 X222.78 Y141.528 E0.46229
G1 X215.376 Y142.956 E0.46501
G1 X207.68 Y143.825 E0.46781
G1 X199.956 Y144.117 E0.47059
G1 X192.228 Y143.824 E0.47338
G1 X184.595 Y142.954 E0.47616
G1 X177.208 Y141.532 E0.47887
G1 X176.943 Y141.512 E0.47897
G1 X176.871 Y141.587 E0.479
G1 X176.846 Y141.774 E0.47907
G1 X176.845 Y156.418 E0.48436
G1 X176.867 Y156.585 E0.48442
G1 X176.939 Y156.68 E0.48446
G1 X177.209 Y156.66 E0.48456
G1 X184.613 Y155.232 E0.48728
G1 X192.281 Y154.367 E0.49006
G1 X200.036 Y154.079 E0.49286
G1 X207.76 Y154.368 E0.49565
G1 X215.391 Y155.234 E0.49842
G1 X222.779 Y156.66 E0.50114
G1 X223.001 Y156.676 E0.50122
G1 X223.123 Y156.595 E0.50127
G0 X222.335 Y155.735
G1 X222.335 Y142.449 E0.50606
G1 X215.5 Y143.768 E0.50857
G1 X207.728 Y144.641 E0.51139
G1 X199.94 Y144.937 E0.51421
G1 X192.144 Y144.64 E0.51702
G1 X184.464 Y143.765 E0.51981
G1 X177.665 Y142.457 E0.52231
G1 X177.665 Y155.735 E0.5271
G1 X184.485 Y154.416 E0.5296
G1 X192.208 Y153.547 E0.53241
G1 X200.052 Y153.259 E0.53524
G1 X207.84 Y153.548 E0.53805
G1 X215.515 Y154.418 E0.54084
G1 X222.335 Y155.735 E0.54335
G0 X221.515 Y154.739
G1 X221.515 Y143.441 E0.54742
G1 X215.623 Y144.58 E0.54959
G1 X207.776 Y145.457 E0.55244
G1 X199.924 Y145.757 E0.55527
G1 X192.064 Y145.456 E0.55811
G1 X184.336 Y144.577 E0.56091
G1 X178.485 Y143.449 E0.56306
G1 X178.485 Y154.739 E0.56714
G1 X184.357 Y153.6 E0.5693
G1 X192.148 Y152.727 E0.57212
G1 X200.068 Y152.439 E0.57498
G1 X207.92 Y152.728 E0.57782
G1 X215.639 Y153.602 E0.58062
G1 X221.515 Y154.739 E0.58278
G0 X220.695 Y153.743
G1 X220.695 Y144.433 E0.58614
G1 X215.731 Y145.392 E0.58796
G1 X207.846 Y146.273 E0.59083
G1 X199.908 Y146.577 E0.59369
G1 X191.984 Y146.272 E0.59655
G1 X184.229 Y145.394 E0.59937
G1 X179.305 Y144.441 E0.60118
G1 X179.305 Y153.743 E0.60453
G1 X184.232 Y152.786 E0.60634
G1 X192.1 Y151.907 E0.6092
G1 X200.084 Y151.619 E0.61208
G1 X208 Y151.908 E0.61494
G1 X215.747 Y152.786 E0.61775
G1 X220.695 Y153.743 E0.61957
G0 X219.875 Y152.747
G1 X219.875 Y145.425 E0.62221
G1 X215.84 Y146.204 E0.6237
G1 X207.904 Y147.089 E0.62658
G1 X199.892 Y147.397 E0.62947
G1 X191.904 Y147.088 E0.63235
G1 X184.117 Y146.206 E0.63518
G1 X180.125 Y145.433 E0.63665
G1 X180.125 Y152.747 E0.63929
G1 X184.124 Y151.97 E0.64076
G1 X192.052 Y151.087 E0.64364
G1 X200.096 Y150.799 E0.64654
G1 X208.06 Y151.088 E0.64942
G1 X215.855 Y151.97 E0.65225
G1 X219.875 Y152.747 E0.65372
G0 X219.055 Y151.751
G1 X219.055 Y146.417 E0.65565
G1 X215.948 Y147.016 E0.65679
G1 X207.952 Y147.905 E0.65969
G1 X199.876 Y148.217 E0.66261
G1 X191.825 Y147.904 E0.66551
G1 X184.004 Y147.022 E0.66835
G1 X180.945 Y146.425 E0.66948
G1 X180.945 Y151.751 E0.6714
G1 X184.033 Y151.152 E0.67253
G1 X192.004 Y150.267 E0.67543
G1 X200.108 Y149.979 E0.67835
G1 X208.14 Y150.268 E0.68125
G1 X215.963 Y151.154 E0.68409
G1 X219.055 Y151.751 E0.68523
G0 X218.235 Y150.755
G1 X218.235 Y147.409 E0.68644
G1 X216.056 Y147.828 E0.68724
G1 F874.4 X214.752 Y147.986 E0.68773
G1 F825.5 X213.447 Y148.143 E0.68824
G1 F781.8 X212.142 Y148.301 E0.68879
G1 F742.5 X210.838 Y148.459 E0.68936
G1 F706.9 X209.534 Y148.616 E0.68997
G1 F674.6 X208.229 Y148.774 E0.6906
G1 F649.6 X208.186 Y148.788 E0.69062
G1 F645.1 X208.052 Y148.798 E0.69069
G1 F663.7 X207.389 Y148.811 E0.69101
G1 F694.9 X206.726 Y148.825 E0.69132
G1 F729.2 X206.063 Y148.838 E0.69162
G1 F767.2 X205.401 Y148.852 E0.6919
G1 F809.2 X204.738 Y148.865 E0.69217
G1 F856.1 X204.075 Y148.878 E0.69242
G1 F906.6 X203.412 Y148.892 E0.69265
